X:1
T:Swiss Boy. JBs.035, The
L:1/8
Q:1/2=100
M:2/4
I:linebreak $
K:F
V:1 treble 
V:1
 A>B |"^No key sig. in MS" c2 A>B | c2 A>B | c2 a>g | f2 c>c | c2 b>a | g2 a>g | f2 :: c>c | %9
 c2 (g>f) | e2 c>c | c2 a>g |$ f2 c>c | c2 (g>f) | e2 c>c | c2 a>g | f2 A>B | c2 A>B | c2 A>B | %19
 c2 a>g | f2 c>c | c2 b>a | g2 a>g | f2 :| %24
